seeds/icons/elevator.svg

<?xml version="1.0" encoding="utf-8"?><!-- Uploaded to: SVG Repo, www.svgrepo.com, Generator: SVG Repo Mixer Tools -->
<svg width="1.5rem" height="1.5rem" viewBox="0 0 24 24" fill="none" xmlns="http://www.w3.org/2000/svg">
<path d="M12 8H17C17.5523 8 18 8.44772 18 9V19C18 19.5523 17.5523 20 17 20H12M12 8H7C6.44772 8 6 8.44772 6 9V19C6 19.5523 6.44772 20 7 20H12M12 8V20M7.5 4.5L9 3L10.5 4.5M13.5 3L15 4.5L16.5 3" stroke="#000000" stroke-width="2" stroke-linecap="round" stroke-linejoin="round"/>
</svg>

<svg xmlns="http://www.w3.org/2000/svg" width="1.5rem" height="1.5rem" fill="none" viewBox="0 0 24 24"><path stroke="#000" stroke-linecap="round" stroke-linejoin="round" stroke-width="2" d="M12 8h5a1 1 0 0 1 1 1v10a1 1 0 0 1-1 1h-5m0-12H7a1 1 0 0 0-1 1v10a1 1 0 0 0 1 1h5m0-12v12M7.5 4.5 9 3l1.5 1.5m3-1.5L15 4.5 16.5 3"/></svg>
